package/converter/svg/regular/file-excel.svg

<svg xmlns="http://www.w3.org/2000/svg" viewBox="0 0 384 512"><!-- Font Awesome Pro 6.0.0-alpha2 by @fontawesome - https://fontawesome.com License - https://fontawesome.com/license (Commercial License) --><path d="M365.256 93.383L290.627 18.746C278.625 6.742 262.348 0 245.373 0H64C28.654 0 0 28.652 0 64L0.02 448C0.02 483.344 28.674 512 64.02 512H320C355.199 512 384 483.199 384 448V138.641C384 121.664 377.258 105.383 365.256 93.383ZM336.002 448C336.002 456.836 328.838 464 320.002 464H64.018C55.18 464 48.018 456.836 48.018 448L48 64.125C48 55.289 55.164 48.125 64 48.125H224.008V128C224.008 145.672 238.334 160 256.008 160H336.002V448ZM229.062 233.25L192 280.902L154.938 233.25C146.812 222.844 131.812 220.906 121.25 229.062C110.812 237.188 108.906 252.281 117.062 262.75L161.59 320L117.062 377.25C108.906 387.719 110.812 402.812 121.25 410.938C125.656 414.344 130.844 416 135.969 416C143.125 416 150.219 412.812 154.937 406.75L192 359.098L229.062 406.75C233.781 412.812 240.875 416 248.031 416C253.156 416 258.344 414.344 262.75 410.938C273.188 402.813 275.094 387.719 266.938 377.25L222.41 320L266.938 262.75C275.094 252.281 273.188 237.188 262.75 229.062C252.188 220.906 237.156 222.844 229.062 233.25Z"/></svg>

<svg xmlns="http://www.w3.org/2000/svg" viewBox="0 0 384 512"><!--! Font Awesome Pro 6.6.0 by @fontawesome - https://fontawesome.com License - https://fontawesome.com/license (Commercial License) Copyright 2024 Fonticons, Inc. --><path d="M48 448L48 64c0-8.8 7.2-16 16-16l160 0 0 80c0 17.7 14.3 32 32 32l80 0 0 288c0 8.8-7.2 16-16 16L64 464c-8.8 0-16-7.2-16-16zM64 0C28.7 0 0 28.7 0 64L0 448c0 35.3 28.7 64 64 64l256 0c35.3 0 64-28.7 64-64l0-293.5c0-17-6.7-33.3-18.7-45.3L274.7 18.7C262.7 6.7 246.5 0 229.5 0L64 0zm90.9 233.3c-8.1-10.5-23.2-12.3-33.7-4.2s-12.3 23.2-4.2 33.7L161.6 320l-44.5 57.3c-8.1 10.5-6.3 25.5 4.2 33.7s25.5 6.3 33.7-4.2L192 359.1l37.1 47.6c8.1 10.5 23.2 12.3 33.7 4.2s12.3-23.2 4.2-33.7L222.4 320l44.5-57.3c8.1-10.5 6.3-25.5-4.2-33.7s-25.5-6.3-33.7 4.2L192 280.9l-37.1-47.6z"/></svg>
